!!!OTL: "Glaubens - Einheit" WIR GLAUBEN ALL AN EINEN GOTT
!!!ARE: Europa, Mitteleuropa, Deutschland
!!!SCT: Z1119
!!!YEM: Copyright 1995, estate of Helmut Schaffrath.
**kern
*ICvox
*Ivox
*M4/4
*k[b-]
*d:
{4d
=1
4a
4g
4a
4e
=2
4fn
4e
2d}
=3
{4a
4a
4dd
4ccn
=4
4b
8a
8b
4ccn
4b
=5
2.a}
{4b
=6
4ccn
4a
4a
4g
=7
4a
4fn
2e}
=8
{4d
4e
4fn
4g
=9
4a
4g
4fn
4e
=10
2d}
{4dd
4dd
=11
4ee
4dd
8ccn
8b
4a
=12
4dd
4cc#
2dd}
=13
{4ee
4b
4ccn
4a
=14
4a
4e
2fn
=15
2e}
{4a
4g
=16
4a
4b
4ccn
4b
=17
4a
4g#
2a}
=18
{4b
4dd
4a
4g
=19
4a
4e
2fn
=20
2.e}
{4g
=21
4fn
4e
4d
4e
=22
4fn
4g
4a}
{4e
=23
4fn
4g
4a
4g
=24
4fn
4e
4d}
==
!!!AGN: religioeses Lied
!!!ONB: ESAC (Essen Associative Code) Database: ZUCCAL
!!!AMT: simple quadruple
!!!AIN: vox
!!!EED: Helmut Schaffrath
!!!EEV: 1.0
*-
